X: 37762
T: Son Ar Rost
R: slide
M: 12/8
K: Amixolydian
Bcd|e3 e2 f|edB g2 a|gfe f2 g|e2 d Bcd|
e3 e2 f|edB g2 a|gfe f2 g|e2 d:|
Bcd|e2 f a3|gfe d2 f|g2 f e3|def B2 A|
Bef a3|g2 f e2 f|g2 f e2 d|e2 e:|

